src/assets/images/compass.svg

<svg aria-hidden="true" focusable="false" data-prefix="fas" data-icon="drafting-compass" class="svg-inline--fa fa-drafting-compass fa-w-16" role="img" xmlns="http://www.w3.org/2000/svg" viewBox="0 0 512 512"><path fill="currentColor" d="M457.01 344.42c-25.05 20.33-52.63 37.18-82.54 49.05l54.38 94.19 53.95 23.04c9.81 4.19 20.89-2.21 22.17-12.8l7.02-58.25-54.98-95.23zm42.49-94.56c4.86-7.67 1.89-17.99-6.05-22.39l-28.07-15.57c-7.48-4.15-16.61-1.46-21.26 5.72C403.01 281.15 332.25 320 256 320c-23.93 0-47.23-4.25-69.41-11.53l67.36-116.68c.7.02 1.34.21 2.04.21s1.35-.19 2.04-.21l51.09 88.5c31.23-8.96 59.56-25.75 82.61-48.92l-51.79-89.71C347.39 128.03 352 112.63 352 96c0-53.02-42.98-96-96-96s-96 42.98-96 96c0 16.63 4.61 32.03 12.05 45.66l-68.3 118.31c-12.55-11.61-23.96-24.59-33.68-39-4.79-7.1-13.97-9.62-21.38-5.33l-27.75 16.07c-7.85 4.54-10.63 14.9-5.64 22.47 15.57 23.64 34.69 44.21 55.98 62.02L0 439.66l7.02 58.25c1.28 10.59 12.36 16.99 22.17 12.8l53.95-23.04 70.8-122.63C186.13 377.28 220.62 384 256 384c99.05 0 190.88-51.01 243.5-134.14zM256 64c17.67 0 32 14.33 32 32s-14.33 32-32 32-32-14.33-32-32 14.33-32 32-32z"></path></svg>

<?xml version="1.0" encoding="UTF-8" standalone="no"?>
<!DOCTYPE svg PUBLIC "-//W3C//DTD SVG 1.1//EN" "http://www.w3.org/Graphics/SVG/1.1/DTD/svg11.dtd">
<svg width="100%" height="100%" viewBox="0 0 512 512" version="1.1" xmlns="http://www.w3.org/2000/svg" xmlns:xlink="http://www.w3.org/1999/xlink" xml:space="preserve" xmlns:serif="http://www.serif.com/" style="fill-rule:evenodd;clip-rule:evenodd;stroke-linejoin:round;stroke-miterlimit:2;">
    <path d="M457.01,344.42C431.96,364.75 404.38,381.6 374.47,393.47L428.85,487.66L482.8,510.7C492.61,514.89 503.69,508.49 504.97,497.9L511.99,439.65L457.01,344.42ZM499.5,249.86C504.36,242.19 501.39,231.87 493.45,227.47L465.38,211.9C457.9,207.75 448.77,210.44 444.12,217.62C403.01,281.15 332.25,320 256,320C232.07,320 208.77,315.75 186.59,308.47L253.95,191.79C254.65,191.81 255.29,192 255.99,192C256.69,192 257.34,191.81 258.03,191.79L309.12,280.29C340.35,271.33 368.68,254.54 391.73,231.37L339.94,141.66C347.39,128.03 352,112.63 352,96C352,42.98 309.02,0 256,0C202.98,0 160,42.98 160,96C160,112.63 164.61,128.03 172.05,141.66L103.75,259.97C91.2,248.36 79.79,235.38 70.07,220.97C65.28,213.87 56.1,211.35 48.69,215.64L20.94,231.71C13.09,236.25 10.31,246.61 15.3,254.18C30.87,277.82 49.99,298.39 71.28,316.2L0,439.66L7.02,497.91C8.3,508.5 19.38,514.9 29.19,510.71L83.14,487.67L153.94,365.04C186.13,377.28 220.62,384 256,384C355.05,384 446.88,332.99 499.5,249.86ZM256,64C273.67,64 288,78.33 288,96C288,113.67 273.67,128 256,128C238.33,128 224,113.67 224,96C224,78.33 238.33,64 256,64Z" style="fill:rgb(201,77,51);fill-rule:nonzero;"/>
</svg>
